elementary-add/apps/48/quodlibet.svg

<?xml version="1.0" encoding="UTF-8" standalone="no"?>
<!-- Created with Inkscape (http://www.inkscape.org/) -->
<svg id="svg4951" xmlns:rdf="http://www.w3.org/1999/02/22-rdf-syntax-ns#" xmlns="http://www.w3.org/2000/svg" height="48px" width="48px" version="1.1" xmlns:cc="http://creativecommons.org/ns#" xmlns:xlink="http://www.w3.org/1999/xlink" xmlns:dc="http://purl.org/dc/elements/1.1/">
 <defs id="defs4953">
  <linearGradient id="linearGradient3189" y2="40.496" gradientUnits="userSpaceOnUse" x2="71.204" gradientTransform="matrix(1.617 0 0 1.617 -92.707 -21.06)" y1="15.369" x1="71.204">
   <stop id="stop4808-4" stop-color="#fff" offset="0"/>
   <stop id="stop4810-0" stop-color="#fff" stop-opacity=".23529" offset=".42448"/>
   <stop id="stop4812-8" stop-color="#fff" stop-opacity=".15686" offset=".82090"/>
   <stop id="stop4814-0" stop-color="#fff" stop-opacity=".39216" offset="1"/>
  </linearGradient>
  <radialGradient id="radialGradient3192" gradientUnits="userSpaceOnUse" cy="3.99" cx="23.896" gradientTransform="matrix(0 2.8885 -3.8128 0 39.213 -65.95)" r="20.397">
   <stop id="stop5352" stop-color="#5a7da5" offset="0"/>
   <stop id="stop5354" stop-color="#13396b" offset="1"/>
  </radialGradient>
  <radialGradient id="radialGradient3195" gradientUnits="userSpaceOnUse" cy="186.17" cx="99.157" gradientTransform="matrix(.27083 0 0 .087623 -2.8551 25.187)" r="62.769">
   <stop id="stop3822-2-6-3" stop-color="#3d3d3d" offset="0"/>
   <stop id="stop3864-8-7-7" stop-color="#686868" stop-opacity=".49804" offset=".5"/>
   <stop id="stop3824-1-2-5" stop-color="#686868" stop-opacity="0" offset="1"/>
  </radialGradient>
  <clipPath id="clipPath-670522636">
   <g id="g17-3" transform="translate(0 -1004.4)">
    <path id="path19-5" d="m-24 13c0 1.105-0.672 2-1.5 2s-1.5-0.895-1.5-2 0.672-2 1.5-2 1.5 0.895 1.5 2z" transform="matrix(15.333 0 0 11.5 415 878.86)" fill="#1890d0"/>
   </g>
  </clipPath>
 </defs>
 <metadata id="metadata4956">
  <rdf:RDF>
   <cc:Work rdf:about="">
    <dc:format>image/svg+xml</dc:format>
    <dc:type rdf:resource="http://purl.org/dc/dcmitype/StillImage"/>
    <dc:title/>
   </cc:Work>
  </rdf:RDF>
 </metadata>
 <g id="layer1">
  <path id="path3818-0-5" d="m41 41.5a17 5.5 0 0 1 -34 0 17 5.5 0 1 1 34 0z" fill="url(#radialGradient3195)"/>
  <path id="path2555-7-2" style="color:#000000" d="m24 3.5c-11.311 0-20.5 9.1888-20.5 20.5s9.1888 20.5 20.5 20.5 20.5-9.1888 20.5-20.5-9.189-20.5-20.5-20.5z" fill="url(#radialGradient3192)"/>
  <path id="path4176" opacity=".3" stroke-linejoin="round" style="color:#000000" d="m43.5 24c0 10.77-8.73 19.5-19.5 19.5s-19.5-8.73-19.5-19.5 8.73-19.5 19.5-19.5 19.5 8.73 19.5 19.5z" stroke="url(#linearGradient3189)" stroke-linecap="round" fill="none"/>
  <path id="path3871" opacity=".7" style="color:#000000" d="m24 3.5c-11.311 0-20.5 9.189-20.5 20.5s9.189 20.5 20.5 20.5 20.5-9.189 20.5-20.5-9.189-20.5-20.5-20.5z" stroke="#203860" fill="none"/>
  <g id="g4418" stroke-linejoin="round" transform="translate(0 .49951)" stroke="#000" stroke-linecap="round" stroke-miterlimit="4.1" fill="none">
   <g id="g4402" opacity=".15" transform="matrix(.91669 0 0 .91754 2.9992 1.9949)" stroke-width="2.1807">
    <g id="g4404" stroke-linejoin="round" clip-path="url(#clipPath-670522636)" stroke="#000" stroke-linecap="round" stroke-miterlimit="4.1" stroke-width="2.1807" fill="none"><!-- color: #1e3948 -->
     <g id="g4406" stroke-linejoin="round" stroke="#000" stroke-linecap="round" stroke-miterlimit="4.1" stroke-width="2.1807" fill="none">
      <path id="path4408" stroke-linejoin="round" d="m36 34s-2-3-5-3c-2.797 0.539-3.906 0.082-4 0v-12.11c-0.133-2.547-2.223-5.102-5.336-6.277-3.949-1.492-8.125-0.195-9.332 2.906-1.211 3.098 1 6.848 4.953 8.34 3.059 1.156 5.867 0.867 7.715-0.863v12c4 2.66 7.719-0.961 11-1m0 0" stroke="#000" stroke-linecap="round" stroke-miterlimit="4.1" stroke-width="2.1807" fill="none"/>
     </g>
    </g>
   </g>
   <g id="g4410" opacity=".15" transform="matrix(.91669 0 0 .91754 2.9992 1.9949)" stroke-width="1.0904">
    <g id="g4412" stroke-linejoin="round" clip-path="url(#clipPath-670522636)" stroke="#000" stroke-linecap="round" stroke-miterlimit="4.1" stroke-width="1.0904" fill="none"><!-- color: #1e3948 -->
     <g id="g4414" stroke-linejoin="round" stroke="#000" stroke-linecap="round" stroke-miterlimit="4.1" stroke-width="1.0904" fill="none">
      <path id="path4416" stroke-linejoin="round" d="m36 34s-2-3-5-3c-2.797 0.539-3.906 0.082-4 0v-12.11c-0.133-2.547-2.223-5.102-5.336-6.277-3.949-1.492-8.125-0.195-9.332 2.906-1.211 3.098 1 6.848 4.953 8.34 3.059 1.156 5.867 0.867 7.715-0.863v12c4 2.66 7.719-0.961 11-1m0 0" stroke="#000" stroke-linecap="round" stroke-miterlimit="4.1" stroke-width="1.0904" fill="none"/>
     </g>
    </g>
   </g>
  </g>
  <g id="g47-0" transform="matrix(.91669 0 0 .91754 2.9992 1.9949)">
   <g id="g49-7" clip-path="url(#clipPath-670522636)"><!-- color: #1e3948 -->
    <g id="g51-1">
     <path id="path53-2" d="m36 34s-2-3-5-3c-2.797 0.539-3.906 0.082-4 0v-12.11c-0.133-2.547-2.223-5.102-5.336-6.277-3.949-1.492-8.125-0.195-9.332 2.906-1.211 3.098 1 6.848 4.953 8.34 3.059 1.156 5.867 0.867 7.715-0.863v12c4 2.66 7.719-0.961 11-1" fill="#f9f9f9"/>
    </g>
   </g>
  </g>
 </g>
</svg>

<?xml version="1.0" encoding="UTF-8" standalone="no"?>
<!-- Created with Inkscape (http://www.inkscape.org/) -->

<svg
   xmlns:dc="http://purl.org/dc/elements/1.1/"
   xmlns:cc="http://creativecommons.org/ns#"
   xmlns:rdf="http://www.w3.org/1999/02/22-rdf-syntax-ns#"
   xmlns:svg="http://www.w3.org/2000/svg"
   xmlns="http://www.w3.org/2000/svg"
   xmlns:sodipodi="http://sodipodi.sourceforge.net/DTD/sodipodi-0.dtd"
   xmlns:inkscape="http://www.inkscape.org/namespaces/inkscape"
   id="svg4951"
   height="48px"
   width="48px"
   version="1.1"
   inkscape:version="0.91 r13725"
   sodipodi:docname="quodlibet.svg">
  <sodipodi:namedview
     pagecolor="#ffffff"
     bordercolor="#666666"
     borderopacity="1"
     objecttolerance="10"
     gridtolerance="10"
     guidetolerance="10"
     inkscape:pageopacity="0"
     inkscape:pageshadow="2"
     inkscape:window-width="1535"
     inkscape:window-height="876"
     id="namedview38"
     showgrid="false"
     inkscape:zoom="4.9166667"
     inkscape:cx="24"
     inkscape:cy="24"
     inkscape:window-x="65"
     inkscape:window-y="24"
     inkscape:window-maximized="1"
     inkscape:current-layer="svg4951" />
  <defs
     id="defs4953">
    <linearGradient
       id="linearGradient3189"
       y2="40.496"
       gradientUnits="userSpaceOnUse"
       x2="71.204"
       gradientTransform="matrix(1.617,0,0,1.617,-92.707,-21.06)"
       y1="15.369"
       x1="71.204">
      <stop
         id="stop4808-4"
         stop-color="#fff"
         offset="0" />
      <stop
         id="stop4810-0"
         stop-color="#fff"
         stop-opacity=".23529"
         offset=".42448" />
      <stop
         id="stop4812-8"
         stop-color="#fff"
         stop-opacity=".15686"
         offset=".82090" />
      <stop
         id="stop4814-0"
         stop-color="#fff"
         stop-opacity=".39216"
         offset="1" />
    </linearGradient>
    <radialGradient
       id="radialGradient3192"
       gradientUnits="userSpaceOnUse"
       cy="3.99"
       cx="23.896"
       gradientTransform="matrix(0,2.8885,-3.8128,0,39.213,-65.95)"
       r="20.397">
      <stop
         id="stop5352"
         stop-color="#5a7da5"
         offset="0" />
      <stop
         id="stop5354"
         stop-color="#13396b"
         offset="1" />
    </radialGradient>
    <radialGradient
       id="radialGradient3195"
       gradientUnits="userSpaceOnUse"
       cy="186.17"
       cx="99.157"
       gradientTransform="matrix(0.27083,0,0,0.087623,-2.8551,25.187)"
       r="62.769">
      <stop
         id="stop3822-2-6-3"
         stop-color="#3d3d3d"
         offset="0" />
      <stop
         id="stop3864-8-7-7"
         stop-color="#686868"
         stop-opacity=".49804"
         offset=".5" />
      <stop
         id="stop3824-1-2-5"
         stop-color="#686868"
         stop-opacity="0"
         offset="1" />
    </radialGradient>
    <clipPath
       id="clipPath-670522636">
      <g
         id="g17-3"
         transform="translate(0 -1004.4)">
        <path
           id="path19-5"
           d="m-24 13c0 1.105-0.672 2-1.5 2s-1.5-0.895-1.5-2 0.672-2 1.5-2 1.5 0.895 1.5 2z"
           transform="matrix(15.333 0 0 11.5 415 878.86)"
           fill="#1890d0" />
      </g>
    </clipPath>
  </defs>
  <metadata
     id="metadata4956">
    <rdf:RDF>
      <cc:Work
         rdf:about="">
        <dc:format>image/svg+xml</dc:format>
        <dc:type
           rdf:resource="http://purl.org/dc/dcmitype/StillImage" />
        <dc:title />
      </cc:Work>
    </rdf:RDF>
  </metadata>
  <path
     inkscape:connector-curvature="0"
     d="M 24,3.5 C 12.689,3.5 3.5,12.6888 3.5,24 3.5,35.3112 12.6888,44.5 24,44.5 35.3112,44.5 44.5,35.3112 44.5,24 44.5,12.6888 35.311,3.5 24,3.5 Z"
     style="color:#000000;fill:url(#radialGradient3192)"
     id="path2555-7-2" />
  <path
     inkscape:connector-curvature="0"
     d="M 43.5,24 C 43.5,34.77 34.77,43.5 24,43.5 13.23,43.5 4.5,34.77 4.5,24 4.5,13.23 13.23,4.5 24,4.5 34.77,4.5 43.5,13.23 43.5,24 Z"
     style="color:#000000;opacity:0.3;fill:none;stroke:url(#linearGradient3189);stroke-linecap:round;stroke-linejoin:round"
     id="path4176" />
  <path
     inkscape:connector-curvature="0"
     d="M 24,3.5 C 12.689,3.5 3.5,12.689 3.5,24 3.5,35.311 12.689,44.5 24,44.5 35.311,44.5 44.5,35.311 44.5,24 44.5,12.689 35.311,3.5 24,3.5 Z"
     style="color:#000000;opacity:0.7;fill:none;stroke:#203860"
     id="path3871" />
  <g
     style="fill:none;stroke:#000000;stroke-linecap:round;stroke-linejoin:round;stroke-miterlimit:4.0999999"
     stroke-miterlimit="4.1"
     transform="translate(0,0.49951)"
     id="g4418">
    <g
       style="opacity:0.15;stroke-width:2.18070006"
       transform="matrix(0.91669,0,0,0.91754,2.9992,1.9949)"
       id="g4402">
      <g
         style="fill:none;stroke:#000000;stroke-width:2.18070006;stroke-linecap:round;stroke-linejoin:round;stroke-miterlimit:4.0999999"
         stroke-miterlimit="4.1"
         clip-path="url(#clipPath-670522636)"
         id="g4404">
        <!-- color: #1e3948 -->
        <g
           style="fill:none;stroke:#000000;stroke-width:2.18070006;stroke-linecap:round;stroke-linejoin:round;stroke-miterlimit:4.0999999"
           stroke-miterlimit="4.1"
           id="g4406">
          <path
             style="fill:none;stroke:#000000;stroke-width:2.18070006;stroke-linecap:round;stroke-linejoin:round;stroke-miterlimit:4.0999999"
             inkscape:connector-curvature="0"
             stroke-miterlimit="4.1"
             d="m 36,34 c 0,0 -2,-3 -5,-3 -2.797,0.539 -3.906,0.082 -4,0 l 0,-12.11 c -0.133,-2.547 -2.223,-5.102 -5.336,-6.277 -3.949,-1.492 -8.125,-0.195 -9.332,2.906 -1.211,3.098 1,6.848 4.953,8.34 3.059,1.156 5.867,0.867 7.715,-0.863 l 0,12 c 4,2.66 7.719,-0.961 11,-1 m 0,0"
             id="path4408" />
        </g>
      </g>
    </g>
    <g
       style="opacity:0.15;stroke-width:1.09039998"
       transform="matrix(0.91669,0,0,0.91754,2.9992,1.9949)"
       id="g4410">
      <g
         style="fill:none;stroke:#000000;stroke-width:1.09039998;stroke-linecap:round;stroke-linejoin:round;stroke-miterlimit:4.0999999"
         stroke-miterlimit="4.1"
         clip-path="url(#clipPath-670522636)"
         id="g4412">
        <!-- color: #1e3948 -->
        <g
           style="fill:none;stroke:#000000;stroke-width:1.09039998;stroke-linecap:round;stroke-linejoin:round;stroke-miterlimit:4.0999999"
           stroke-miterlimit="4.1"
           id="g4414">
          <path
             style="fill:none;stroke:#000000;stroke-width:1.09039998;stroke-linecap:round;stroke-linejoin:round;stroke-miterlimit:4.0999999"
             inkscape:connector-curvature="0"
             stroke-miterlimit="4.1"
             d="m 36,34 c 0,0 -2,-3 -5,-3 -2.797,0.539 -3.906,0.082 -4,0 l 0,-12.11 c -0.133,-2.547 -2.223,-5.102 -5.336,-6.277 -3.949,-1.492 -8.125,-0.195 -9.332,2.906 -1.211,3.098 1,6.848 4.953,8.34 3.059,1.156 5.867,0.867 7.715,-0.863 l 0,12 c 4,2.66 7.719,-0.961 11,-1 m 0,0"
             id="path4416" />
        </g>
      </g>
    </g>
  </g>
  <g
     transform="matrix(0.91669,0,0,0.91754,2.9992,1.9949)"
     id="g47-0">
    <g
       clip-path="url(#clipPath-670522636)"
       id="g49-7">
      <!-- color: #1e3948 -->
      <g
         id="g51-1">
        <path
           style="fill:#f9f9f9"
           inkscape:connector-curvature="0"
           d="m 36,34 c 0,0 -2,-3 -5,-3 -2.797,0.539 -3.906,0.082 -4,0 l 0,-12.11 c -0.133,-2.547 -2.223,-5.102 -5.336,-6.277 -3.949,-1.492 -8.125,-0.195 -9.332,2.906 -1.211,3.098 1,6.848 4.953,8.34 3.059,1.156 5.867,0.867 7.715,-0.863 l 0,12 c 4,2.66 7.719,-0.961 11,-1"
           id="path53-2" />
      </g>
    </g>
  </g>
</svg>
